src/assets/images/sponsors/picCollage.svg

<svg fill="none" height="240" viewBox="0 0 300 240" width="300" xmlns="http://www.w3.org/2000/svg" xmlns:xlink="http://www.w3.org/1999/xlink"><clipPath id="a"><path d="m12 99h276v41h-276z"/></clipPath><path d="m0 0h300v240h-300z" fill="#fff"/><g clip-path="url(#a)" fill="#524490"><path d="m175.673 112.601c-2.654 0-5.201 1.024-7.079 2.845-1.878 1.822-2.933 4.294-2.933 6.871 0 2.576 1.055 5.049 2.933 6.87 1.878 1.822 4.425 2.847 7.079 2.847 2.652-.014 5.191-1.042 7.064-2.862 1.875-1.819 2.935-4.283 2.949-6.855-.014-2.572-1.074-5.035-2.949-6.855-1.873-1.819-4.412-2.847-7.064-2.862zm0 15.005c-.714.004-1.421-.132-2.084-.394-.661-.264-1.262-.651-1.769-1.14-.506-.49-.909-1.071-1.183-1.713-.274-.64-.415-1.327-.415-2.021 0-.693.141-1.381.415-2.022.274-.642.676-1.224 1.183-1.715.505-.491 1.106-.879 1.768-1.143.661-.264 1.369-.4 2.084-.399.716 0 1.425.134 2.086.399.661.264 1.261.654 1.768 1.143.507.491.908 1.073 1.182 1.715.274.641.416 1.329.416 2.022 0 .694-.142 1.381-.416 2.021s-.675 1.222-1.182 1.713c-.506.489-1.107.878-1.768 1.14-.661.264-1.37.398-2.085.394zm23.152.14.411.444v3.109l-.411.431h-5.096c-1.892 0-2.749-.832-2.749-2.71v-18.785h-2.525l-.457-.389v-3.098l.457-.431h5.373c1.847 0 2.481.648 2.481 2.397v19.087l2.514-.053zm37.99 0v-14.282l-.455-.442h-3.671l-.411.442v1.64c-1.799-1.657-4.194-2.569-6.675-2.537-1.314-.03-2.622.201-3.839.682-1.22.48-2.324 1.197-3.245 2.108-.921.912-1.639 1.997-2.111 3.188-.471 1.19-.685 2.464-.628 3.739-.057 1.276.157 2.548.628 3.74.471 1.191 1.189 2.278 2.111 3.188.921.911 2.025 1.628 3.245 2.108 1.218.479 2.525.711 3.839.68 1.304.02 2.596-.235 3.788-.749 1.192-.515 2.253-1.277 3.109-2.23v.054c0 1.9.869 2.569 2.514 2.569h4.227l.455-.442v-3.109l-.455-.442-2.426.097zm-10.289-.054c-.724.013-1.442-.118-2.113-.382-.67-.264-1.28-.657-1.788-1.155-.51-.499-.912-1.091-1.179-1.744-.268-.652-.399-1.35-.381-2.051-.024-.708.1-1.412.365-2.071.264-.658.664-1.259 1.174-1.764s1.123-.904 1.797-1.173c.673-.268 1.398-.402 2.126-.391.726-.019 1.449.112 2.123.379.672.267 1.28.668 1.786 1.175.506.508.896 1.112 1.148 1.773s.361 1.367.316 2.072c.038.698-.075 1.398-.33 2.051-.255.654-.647 1.251-1.154 1.75-.505.499-1.111.891-1.781 1.151-.669.259-1.387.382-2.108.359v.021zm-13.973.076.412.442v3.087l-.412.431h-5.096c-1.891 0-2.747-.831-2.747-2.71v-18.785h-2.526l-.456-.388v-3.098l.456-.432h5.362c1.858 0 2.492.648 2.492 2.397v19.088zm-114.0509-17.662c-.0031-.447.085-.89.2629-1.305.1748-.412.4345-.788.762-1.103.329-.315.716-.563 1.144-.73.429-.168.885-.249 1.347-.243.458-.003.911.083 1.335.252.423.169.807.417 1.13.732.323.314.578.689.751 1.1s.26.852.255 1.295c.005.444-.082.884-.255 1.296-.173.411-.428.785-.751 1.1-.323.314-.709.563-1.13.732-.424.169-.877.255-1.335.252-.463.007-.923-.076-1.351-.244-.43-.169-.8189-.419-1.1479-.736-.3274-.317-.5872-.695-.7604-1.111-.1747-.416-.2629-.861-.255-1.31v.021zm8.9659 17.662.412.486v3.045l-.412.431h-9.8128l-.4896-.431v-3.013l.4896-.486h2.6038v-8.14h-1.6907l-.5007-.431v-3.055l.5007-.442h6.5187l.4.442v11.627l1.981-.032zm-24.6205-21.385h-14.0505l-.2881.27v3.163l.2881.281h3.4367v19.842h-2.4921l-.2881.345v3.238l.2786.27h10.8909l.2787-.27v-3.238l-.2787-.28h-3.0919v-5.183h5.373c6.675 0 10.7571-3.54 10.7571-9.252s-4.1718-9.209-10.8137-9.209v.021zm-.1779 14.823h-5.1401v-11.066h5.1952c.7478 0 1.4861.145 2.1741.428.6863.282 1.3082.696 1.8277 1.217.5179.52.9241 1.137 1.1933 1.814.2676.676.3936 1.398.3684 2.122.0598.732-.0441 1.467-.3038 2.155-.2598.687-.6723 1.313-1.2059 1.833-.5337.519-1.1776.92-1.886 1.174-.7085.255-1.4673.356-2.2198.3v.021zm178.7964-8.226c-1.768 0-2.425.583-2.493 2.159-1.799-1.655-4.193-2.566-6.675-2.536-1.314-.031-2.621.201-3.839.681-1.219.48-2.322 1.197-3.245 2.109-.921.911-1.639 1.996-2.111 3.187-.471 1.191-.685 2.464-.628 3.74-.057 1.275.157 2.547.628 3.74.471 1.19 1.19 2.275 2.111 3.187s2.026 1.628 3.245 2.108c1.218.481 2.525.713 3.839.682 2.214.031 4.36-.738 6.019-2.159v.917c0 3.465-2.224 4.988-5.417 4.988-1.149.043-2.294-.161-3.352-.597s-2.002-1.094-2.767-1.929h-.655l-2.348 2.526v.594c1.214 1.209 2.677 2.154 4.292 2.779 1.617.623 3.35.908 5.086.838 5.562 0 9.835-2.687 10.224-8.324v-14.726h2.158l.455-.442v-3.088l-.455-.452-4.072.021zm-8.232 14.714c-.725.012-1.442-.118-2.113-.382s-1.278-.657-1.788-1.156c-.511-.498-.912-1.091-1.18-1.743-.267-.652-.398-1.351-.381-2.052-.025-.707.1-1.412.366-2.07.264-.658.664-1.26 1.174-1.765s1.123-.904 1.796-1.172c.674-.269 1.398-.402 2.127-.392.727-.018 1.45.112 2.122.379.674.268 1.282.668 1.787 1.176s.896 1.111 1.148 1.772c.252.662.36 1.368.316 2.072.038.698-.075 1.398-.33 2.052s-.649 1.251-1.154 1.749c-.506.499-1.112.892-1.781 1.151-.669.26-1.388.382-2.108.359v.022zm-123.539.572v.583c-1.067 1.078-2.358 1.925-3.788 2.482-1.428.559-2.963.816-4.502.756-1.345.047-2.684-.17-3.941-.638-1.256-.468-2.402-1.175-3.37-2.082-.967-.907-1.737-1.994-2.262-3.195-.526-1.202-.795-2.494-.795-3.8 0-5.56 4.448-9.716 10.912-9.716 2.458-.006 4.87.64 6.976 1.868l.367.583v5.204l-.411.399h-3.515l-.444-.399v-2.721c-.943-.388-1.959-.583-2.982-.572-.729-.031-1.458.083-2.139.336-.682.253-1.304.64-1.825 1.135-.521.496-.932 1.091-1.207 1.748-.276.657-.408 1.361-.391 2.07-.028.708.095 1.414.361 2.074.267.66.67 1.258 1.187 1.758.514.501 1.132.894 1.812 1.151.678.258 1.405.378 2.134.35.858.016 1.712-.135 2.51-.44.798-.306 1.525-.761 2.142-1.341h.58l2.593 2.407zm32.506.163c-.013.15-.013.302 0 .453-1.496 1.686-3.358 3.031-5.454 3.938-2.093.906-4.368 1.353-6.66 1.309-2.472.05-4.922-.478-7.138-1.538-2.218-1.062-4.139-2.627-5.601-4.563-1.42-2.001-2.296-4.318-2.544-6.736-.249-2.419.135-4.859 1.12-7.093.786-2.072 2.112-3.911 3.85-5.336 1.738-1.426 3.827-2.388 6.062-2.795.901-.182 1.817-.273 2.736-.27 1.452-.06 2.898.16 4.262.645 1.363.485 2.615 1.227 3.68 2.183l.378.367v-2.332l.378-.399h3.693l.413.409v9.932l-.367.356h-3.726l-.413-.356c0-4.706-4.072-6.379-7.52-6.379-.831 0-1.661.094-2.47.281-1.272.291-2.453.876-3.442 1.705-.988.828-1.758 1.877-2.241 3.055-.699 1.578-1.017 3.29-.929 5.006.086 1.716.576 3.39 1.431 4.894.911 1.449 2.198 2.638 3.734 3.448 1.535.81 3.264 1.216 5.011 1.173 1.577.013 3.139-.313 4.57-.958s2.698-1.59 3.706-2.768c.14.01.282.01.422 0l3.06 2.364zm125.709-.27-2.347-2.256h-.667c-.674.645-1.476 1.151-2.359 1.484-.881.335-1.824.49-2.77.459-1.088.084-2.176-.151-3.124-.674s-1.713-1.312-2.193-2.262c7.097-.259 12.604-2.159 12.604-7.007 0-3.508-3.105-5.689-7.553-5.689-6.899 0-11.126 4.761-11.126 10.138s4.049 9.716 11.126 9.716c1.575.044 3.142-.228 4.604-.797 1.463-.571 2.788-1.427 3.893-2.517l-.088-.594zm-8.589-12.08c1.581 0 2.914.799 2.914 2.159 0 2.483-3.937 3.325-8.466 3.433.012-3.249 2.136-5.614 5.561-5.614l-.011.022z"/><path d="m44.5861 139.064h-20.8703v-27.387h29.2014c.0598 0 .1212-.003.181-.003v19.092c-.0094.036-.0189.072-.0252.109-.0362.296-.0582.596-.1086.89-.1669.973-.4943 1.888-.9871 2.747-.9272 1.616-2.2402 2.839-3.9435 3.657-.8895.428-1.8278.703-2.8117.818-.2141.028-.4251.052-.6344.075zm1.9694-13.769c0-4.528-3.772-8.204-8.4256-8.21-4.6425-.006-8.4161 3.666-8.4287 8.207-.0126 4.524 3.7972 8.235 8.4335 8.22 4.6614-.022 8.4224-3.689 8.4224-8.217z"/><path d="m20.5121 139.064c-.2109-.025-.4203-.048-.6313-.074-.9949-.115-1.9426-.394-2.8384-.83-1.6892-.821-2.9958-2.035-3.9152-3.64-.4991-.867-.8265-1.794-.9981-2.772-.0929-.531-.1307-1.065-.1307-1.603.0032-6.093 0-12.187 0-18.279v-.178h9.3024c.0032.043.0063.084.0063.13v27.148c0 .033-.0047.066-.0047.099h-.7918z"/><path d="m53.0967 109.325c-.0489.006-.1024.012-.1512.012h-13.6049v-10.3324h.1306c1.5365 0 3.0762-.0122 4.6127.0031 2.6369.0246 4.8582.9868 6.6482 2.8683 1.209 1.271 1.9489 2.778 2.237 4.49.0504.29.0677.586.1055.879.0063.045.0158.088.0252.134v1.947z"/><path d="m12.0252 109.349c0-.718-.0189-1.425.0063-2.131.0284-.834.222-1.639.5211-2.419.5998-1.579 1.5822-2.889 2.9455-3.928 1.1162-.849 2.3693-1.4046 3.7547-1.6792.6155-.1243 1.2421-.1689 1.8702-.1689h15.7885v10.3261z"/><path d="m44.1452 125.283c.0032 3.233-2.6983 5.867-6.0184 5.867-3.3202 0-6.0217-2.634-6.0185-5.867.0031-3.23 2.6983-5.858 6.0122-5.861 3.3185-.003 6.0184 2.628 6.0247 5.861z"/></g></svg>

<svg width="300" height="240" viewBox="0 0 300 240" fill="none" xmlns="http://www.w3.org/2000/svg">
<rect width="300" height="240" fill="white"/>
<g clip-path="url(#clip0_1908_43971)">
<path d="M175.673 112.601C173.019 112.601 170.472 113.625 168.594 115.446C166.716 117.268 165.661 119.74 165.661 122.317C165.661 124.893 166.716 127.366 168.594 129.187C170.472 131.009 173.019 132.034 175.673 132.034C178.325 132.02 180.864 130.992 182.737 129.172C184.612 127.353 185.672 124.889 185.686 122.317C185.672 119.745 184.612 117.282 182.737 115.462C180.864 113.643 178.325 112.615 175.673 112.6V112.601ZM175.673 127.606C174.959 127.61 174.252 127.474 173.589 127.212C172.928 126.948 172.327 126.561 171.82 126.072C171.314 125.582 170.911 125.001 170.637 124.359C170.363 123.719 170.222 123.032 170.222 122.338C170.222 121.645 170.363 120.957 170.637 120.316C170.911 119.674 171.313 119.092 171.82 118.601C172.325 118.11 172.926 117.722 173.588 117.458C174.249 117.194 174.957 117.058 175.672 117.059C176.388 117.059 177.097 117.193 177.758 117.458C178.419 117.722 179.019 118.112 179.526 118.601C180.033 119.092 180.434 119.674 180.708 120.316C180.982 120.957 181.124 121.645 181.124 122.338C181.124 123.032 180.982 123.719 180.708 124.359C180.434 124.999 180.033 125.581 179.526 126.072C179.02 126.561 178.419 126.95 177.758 127.212C177.097 127.476 176.388 127.61 175.673 127.606ZM198.825 127.746L199.236 128.19V131.299L198.825 131.73H193.729C191.837 131.73 190.98 130.898 190.98 129.02V110.235H188.455L187.998 109.846V106.748L188.455 106.317H193.828C195.675 106.317 196.309 106.965 196.309 108.714V127.801L198.823 127.748L198.825 127.746ZM236.815 127.746V113.464L236.36 113.022H232.689L232.278 113.464V115.104C230.479 113.447 228.084 112.535 225.603 112.567C224.289 112.537 222.981 112.768 221.764 113.249C220.544 113.729 219.44 114.446 218.519 115.357C217.598 116.269 216.88 117.354 216.408 118.545C215.937 119.735 215.723 121.009 215.78 122.284C215.723 123.56 215.937 124.832 216.408 126.024C216.879 127.215 217.597 128.302 218.519 129.212C219.44 130.123 220.544 130.84 221.764 131.32C222.982 131.799 224.289 132.031 225.603 132C226.907 132.02 228.199 131.765 229.391 131.251C230.583 130.736 231.644 129.974 232.5 129.021V129.075C232.5 130.975 233.369 131.644 235.014 131.644H239.241L239.696 131.202V128.093L239.241 127.651L236.815 127.748V127.746ZM226.526 127.692C225.802 127.705 225.084 127.574 224.413 127.31C223.743 127.046 223.133 126.653 222.625 126.155C222.115 125.656 221.713 125.064 221.446 124.411C221.178 123.759 221.047 123.061 221.065 122.36C221.041 121.652 221.165 120.948 221.43 120.289C221.694 119.631 222.094 119.03 222.604 118.525C223.114 118.02 223.727 117.621 224.401 117.352C225.074 117.084 225.799 116.95 226.527 116.961C227.253 116.942 227.976 117.073 228.65 117.34C229.322 117.607 229.93 118.008 230.436 118.515C230.942 119.023 231.332 119.627 231.584 120.288C231.836 120.949 231.945 121.655 231.9 122.36C231.938 123.058 231.825 123.758 231.57 124.411C231.315 125.065 230.923 125.662 230.416 126.161C229.911 126.66 229.305 127.052 228.635 127.312C227.966 127.571 227.248 127.694 226.527 127.671V127.692H226.526ZM212.553 127.768L212.965 128.21V131.297L212.553 131.728H207.457C205.566 131.728 204.71 130.897 204.71 129.018V110.233H202.184L201.728 109.845V106.747L202.184 106.315H207.546C209.404 106.315 210.038 106.963 210.038 108.712V127.8L212.553 127.768ZM98.5021 110.106C98.499 109.659 98.5871 109.216 98.765 108.801C98.9398 108.389 99.1995 108.013 99.527 107.698C99.856 107.383 100.243 107.135 100.671 106.968C101.1 106.8 101.556 106.719 102.018 106.725C102.476 106.722 102.929 106.808 103.353 106.977C103.776 107.146 104.16 107.394 104.483 107.709C104.806 108.023 105.061 108.398 105.234 108.809C105.407 109.22 105.494 109.661 105.489 110.104C105.494 110.548 105.407 110.988 105.234 111.4C105.061 111.811 104.806 112.185 104.483 112.5C104.16 112.814 103.774 113.063 103.353 113.232C102.929 113.401 102.476 113.487 102.018 113.484C101.555 113.491 101.095 113.408 100.667 113.24C100.237 113.071 99.8481 112.821 99.5191 112.504C99.1917 112.187 98.9319 111.809 98.7587 111.393C98.584 110.977 98.4958 110.532 98.5037 110.083V110.104L98.5021 110.106ZM107.468 127.768L107.88 128.254V131.299L107.468 131.73H97.6552L97.1656 131.299V128.286L97.6552 127.8H100.259V119.66H98.5683L98.0676 119.229V116.174L98.5683 115.732H105.087L105.487 116.174V127.801L107.468 127.769V127.768ZM82.8475 106.383H68.797L68.5089 106.653V109.816L68.797 110.097H72.2337V129.939H69.7416L69.4535 130.284V133.522L69.7321 133.792H80.623L80.9017 133.522V130.284L80.623 130.004H77.5311V124.821H82.9041C89.5791 124.821 93.6612 121.281 93.6612 115.569C93.6612 109.857 89.4894 106.36 82.8475 106.36V106.381V106.383ZM82.6696 121.206H77.5295V110.14H82.7247C83.4725 110.14 84.2108 110.285 84.8988 110.568C85.5851 110.85 86.207 111.264 86.7265 111.785C87.2444 112.305 87.6506 112.922 87.9198 113.599C88.1874 114.275 88.3134 114.997 88.2882 115.721C88.348 116.453 88.2441 117.188 87.9844 117.876C87.7246 118.563 87.3121 119.189 86.7785 119.709C86.2448 120.228 85.6009 120.629 84.8925 120.883C84.184 121.138 83.4252 121.239 82.6727 121.183V121.204L82.6696 121.206ZM261.466 112.98C259.698 112.98 259.041 113.563 258.973 115.139C257.174 113.484 254.78 112.573 252.298 112.603C250.984 112.572 249.677 112.804 248.459 113.284C247.24 113.764 246.137 114.481 245.214 115.393C244.293 116.304 243.575 117.389 243.103 118.58C242.632 119.771 242.418 121.044 242.475 122.32C242.418 123.595 242.632 124.867 243.103 126.06C243.574 127.25 244.293 128.335 245.214 129.247C246.135 130.159 247.24 130.875 248.459 131.355C249.677 131.836 250.984 132.068 252.298 132.037C254.512 132.068 256.658 131.299 258.317 129.878V130.795C258.317 134.26 256.093 135.783 252.9 135.783C251.751 135.826 250.606 135.622 249.548 135.186C248.49 134.75 247.546 134.092 246.781 133.257H246.126L243.778 135.783V136.377C244.992 137.586 246.455 138.531 248.07 139.156C249.687 139.779 251.42 140.064 253.156 139.994C258.718 139.994 262.991 137.307 263.38 131.67V116.944H265.538L265.993 116.502V113.414L265.538 112.962L261.466 112.983V112.98ZM253.234 127.694C252.509 127.706 251.792 127.576 251.121 127.312C250.45 127.048 249.843 126.655 249.333 126.156C248.822 125.658 248.421 125.065 248.153 124.413C247.886 123.761 247.755 123.062 247.772 122.361C247.747 121.654 247.872 120.949 248.138 120.291C248.402 119.633 248.802 119.031 249.312 118.526C249.822 118.021 250.435 117.622 251.108 117.354C251.782 117.085 252.506 116.952 253.235 116.962C253.962 116.944 254.685 117.074 255.357 117.341C256.031 117.609 256.639 118.009 257.144 118.517C257.649 119.025 258.04 119.628 258.292 120.289C258.544 120.951 258.652 121.657 258.608 122.361C258.646 123.059 258.533 123.759 258.278 124.413C258.023 125.067 257.629 125.664 257.124 126.162C256.618 126.661 256.012 127.054 255.343 127.313C254.674 127.573 253.955 127.695 253.235 127.672V127.694H253.234ZM129.695 128.266V128.849C128.628 129.927 127.337 130.774 125.907 131.331C124.479 131.89 122.944 132.147 121.405 132.087C120.06 132.134 118.721 131.917 117.464 131.449C116.208 130.981 115.062 130.274 114.094 129.367C113.127 128.46 112.357 127.373 111.832 126.172C111.306 124.97 111.037 123.678 111.037 122.372C111.037 116.812 115.485 112.656 121.949 112.656C124.407 112.65 126.819 113.296 128.925 114.524L129.292 115.107V120.311L128.881 120.71H125.366L124.922 120.311V117.59C123.979 117.202 122.963 117.007 121.94 117.018C121.211 116.987 120.482 117.101 119.801 117.354C119.119 117.607 118.497 117.994 117.976 118.489C117.455 118.985 117.044 119.58 116.769 120.237C116.493 120.894 116.361 121.598 116.378 122.307C116.35 123.015 116.473 123.721 116.739 124.381C117.006 125.041 117.409 125.639 117.926 126.139C118.44 126.64 119.058 127.033 119.738 127.29C120.416 127.548 121.143 127.668 121.872 127.64C122.73 127.656 123.584 127.505 124.382 127.2C125.18 126.894 125.907 126.439 126.524 125.859H127.104L129.697 128.266H129.695ZM162.201 128.429C162.188 128.579 162.188 128.731 162.201 128.882C160.705 130.568 158.843 131.913 156.747 132.82C154.654 133.726 152.379 134.173 150.087 134.129C147.615 134.179 145.165 133.651 142.949 132.591C140.731 131.529 138.81 129.964 137.348 128.028C135.928 126.027 135.052 123.71 134.804 121.292C134.555 118.873 134.939 116.433 135.924 114.199C136.71 112.127 138.036 110.288 139.774 108.863C141.512 107.437 143.601 106.475 145.836 106.068C146.737 105.886 147.653 105.795 148.572 105.798C150.024 105.738 151.47 105.958 152.834 106.443C154.197 106.928 155.449 107.67 156.514 108.626L156.892 108.993V106.661L157.27 106.262H160.963L161.376 106.671V116.603L161.009 116.959H157.283L156.87 116.603C156.87 111.897 152.798 110.224 149.35 110.224C148.519 110.224 147.689 110.318 146.88 110.505C145.608 110.796 144.427 111.381 143.438 112.21C142.45 113.038 141.68 114.087 141.197 115.265C140.498 116.843 140.18 118.555 140.268 120.271C140.354 121.987 140.844 123.661 141.699 125.165C142.61 126.614 143.897 127.803 145.433 128.613C146.968 129.423 148.697 129.829 150.444 129.786C152.021 129.799 153.583 129.473 155.014 128.828C156.445 128.183 157.712 127.238 158.72 126.06C158.86 126.07 159.002 126.07 159.142 126.06L162.202 128.424L162.201 128.429ZM287.91 128.159L285.563 125.903H284.896C284.222 126.548 283.42 127.054 282.537 127.387C281.656 127.722 280.713 127.877 279.767 127.846C278.679 127.93 277.591 127.695 276.643 127.172C275.695 126.649 274.93 125.86 274.45 124.91C281.547 124.651 287.054 122.751 287.054 117.903C287.054 114.395 283.949 112.214 279.501 112.214C272.602 112.214 268.375 116.975 268.375 122.352C268.375 127.729 272.424 132.068 279.501 132.068C281.076 132.112 282.643 131.84 284.105 131.271C285.568 130.7 286.893 129.844 287.998 128.754L287.91 128.16V128.159ZM279.321 116.079C280.902 116.079 282.235 116.878 282.235 118.238C282.235 120.721 278.298 121.563 273.769 121.671C273.781 118.422 275.905 116.057 279.33 116.057L279.319 116.079H279.321Z" fill="#524490"/>
<path d="M44.5861 139.064H23.7158V111.677H52.9172C52.977 111.677 53.0384 111.674 53.0982 111.674V130.766C53.0888 130.802 53.0793 130.838 53.073 130.875C53.0368 131.171 53.0148 131.471 52.9644 131.765C52.7975 132.738 52.4701 133.653 51.9773 134.512C51.0501 136.128 49.7371 137.351 48.0338 138.169C47.1443 138.597 46.206 138.872 45.2221 138.987C45.008 139.015 44.797 139.039 44.5877 139.062L44.5861 139.064ZM46.5555 125.295C46.5555 120.767 42.7835 117.091 38.1299 117.085C33.4874 117.079 29.7138 120.751 29.7012 125.292C29.6886 129.816 33.4984 133.527 38.1347 133.512C42.7961 133.49 46.5571 129.823 46.5571 125.295H46.5555Z" fill="#524490"/>
<path d="M20.5121 139.064C20.3012 139.039 20.0918 139.016 19.8808 138.99C18.8859 138.875 17.9382 138.596 17.0424 138.16C15.3532 137.339 14.0466 136.125 13.1272 134.52C12.6281 133.653 12.3007 132.726 12.1291 131.748C12.0362 131.217 11.9984 130.683 11.9984 130.145C12.0016 124.052 11.9984 117.958 11.9984 111.866V111.688H21.3008C21.304 111.731 21.3071 111.772 21.3071 111.818V138.966C21.3071 138.999 21.3024 139.032 21.3024 139.065H20.5106L20.5121 139.064Z" fill="#524490"/>
<path d="M53.0967 109.325C53.0478 109.331 52.9943 109.337 52.9455 109.337H39.3406V99.0046H39.4712C41.0077 99.0046 42.5474 98.9924 44.0839 99.0077C46.7208 99.0323 48.9421 99.9945 50.7321 101.876C51.9411 103.147 52.681 104.654 52.9691 106.366C53.0195 106.656 53.0368 106.952 53.0746 107.245C53.0809 107.29 53.0904 107.333 53.0998 107.379V109.326L53.0967 109.325Z" fill="#524490"/>
<path d="M12.0252 109.349C12.0252 108.631 12.0063 107.924 12.0315 107.218C12.0599 106.384 12.2535 105.579 12.5526 104.799C13.1524 103.22 14.1348 101.91 15.4981 100.871C16.6143 100.022 17.8674 99.4664 19.2528 99.1918C19.8683 99.0675 20.4949 99.0229 21.123 99.0229H36.9115V109.349H12.0252Z" fill="#524490"/>
<path d="M44.1452 125.283C44.1484 128.516 41.4469 131.15 38.1268 131.15C34.8066 131.15 32.1051 128.516 32.1083 125.283C32.1114 122.053 34.8066 119.425 38.1205 119.422C41.439 119.419 44.1389 122.05 44.1452 125.283Z" fill="#524490"/>
</g>
<defs>
<clipPath id="clip0_1908_43971">
<rect width="276" height="41" fill="white" transform="translate(12 99)"/>
</clipPath>
</defs>
</svg>
